bynom4/images/dest/logo-3.svg

<svg width="157" height="25" viewBox="0 0 157 25" fill="none" xmlns="http://www.w3.org/2000/svg">
<path d="M62.2738 8.62338C62.2738 13.7763 62.2738 18.7831 62.2738 23.7898C59.9349 23.7898 57.6691 23.7898 55.2936 23.7898C55.2936 16.3711 55.2936 8.95229 55.2936 1.35081C55.0013 1.64317 54.8185 1.78935 54.6358 1.97208C51.0909 5.91901 47.5094 9.82939 43.9645 13.7763C43.7087 14.0687 43.5259 14.5438 43.5259 14.9458C43.4894 17.8694 43.4894 20.7931 43.4894 23.7533C41.187 23.7533 38.8847 23.7533 36.5092 23.7533C36.5092 23.4609 36.5092 23.1685 36.5092 22.8396C36.5092 20.2449 36.5092 17.6867 36.5092 15.092C36.5092 14.4707 36.363 14.0321 35.9245 13.5936C32.2334 9.57357 28.4692 5.44392 24.7415 1.35081C24.4857 1.09499 24.2664 0.802622 23.9375 0.437166C24.303 0.40062 24.5588 0.364075 24.8511 0.364075C26.9342 0.364075 29.0539 0.40062 31.137 0.364075C31.6852 0.364075 32.0872 0.546803 32.4526 0.948804C34.755 3.65318 37.1305 6.35756 39.4694 9.06193C39.6521 9.2812 39.8348 9.50048 40.0907 9.7563C41.9545 7.56356 43.7818 5.44392 45.6456 3.28772C46.34 2.48372 47.0343 1.60663 47.7652 0.839168C47.9845 0.583348 48.4231 0.40062 48.752 0.40062C53.1374 0.364075 57.5595 0.364075 61.9449 0.40062C62.3469 0.40062 62.7855 0.65644 63.0779 0.912259C67.7922 5.40737 72.4701 9.93902 77.1845 14.4707C77.3306 14.6169 77.5134 14.763 77.7692 15.0189C77.7692 10.0852 77.7692 5.26119 77.7692 0.437166C80.1447 0.437166 82.4105 0.437166 84.7859 0.437166C84.7859 0.692985 84.7859 0.948805 84.7859 1.20462C84.7859 6.46719 84.7859 11.7663 84.7859 17.0289C84.7859 17.5771 84.6398 17.906 84.2378 18.2714C82.1181 20.0622 79.9985 21.8894 77.8788 23.7167C72.6894 18.71 67.5364 13.7398 62.2738 8.62338Z" fill="white"/>
<path d="M128.313 7.81937C128.313 13.1185 128.313 18.4541 128.313 23.7898C125.974 23.7898 123.672 23.7898 121.369 23.7898C121.369 16.0056 121.369 8.22137 121.369 0.400606C121.625 0.400606 121.844 0.36406 122.1 0.36406C124.878 0.36406 127.655 0.400606 130.432 0.327515C131.017 0.327515 131.273 0.546788 131.529 1.02188C133.868 5.18808 136.207 9.35428 138.582 13.5205C138.728 13.8128 138.911 14.1052 139.13 14.4341C140.921 11.2547 142.712 8.11173 144.466 4.96881C145.233 3.58007 146.001 2.19134 146.805 0.839153C146.951 0.61988 147.243 0.36406 147.463 0.327515C150.606 0.36406 153.712 0.36406 156.891 0.36406C156.891 8.18482 156.891 15.969 156.891 23.7898C154.589 23.7898 152.323 23.7898 149.984 23.7898C149.984 18.4541 149.984 13.155 149.984 7.81937C149.911 7.78282 149.875 7.78282 149.802 7.74627C149.655 7.96555 149.509 8.22137 149.363 8.44064C146.622 13.3378 143.845 18.1983 141.104 23.0954C140.811 23.6436 140.482 23.7898 139.861 23.8629C138.107 24.1187 137.193 23.4243 136.353 21.8529C133.831 17.1019 131.127 12.4607 128.459 7.78282C128.459 7.81937 128.386 7.81937 128.313 7.81937Z" fill="white"/>
<path d="M21.6715 11.7663C23.1334 12.0952 24.5587 12.6799 25.6916 13.8129C28.1767 16.2614 27.8478 19.9525 24.9241 22.0356C23.2065 23.2416 21.233 23.8264 19.1864 23.8264C12.9006 23.8994 6.57821 23.8629 0.292365 23.8629C0.219274 23.8629 0.146182 23.8264 0 23.8264C0 16.0421 0 8.25793 0 0.437166C0.219274 0.40062 0.438547 0.364075 0.657821 0.364075C6.43203 0.364075 12.1697 0.364075 17.9439 0.364075C19.9539 0.364075 21.8908 0.766077 23.645 1.75281C25.2165 2.59336 26.3859 3.83591 26.6418 5.66319C26.9341 7.6732 26.1301 9.2812 24.449 10.4141C23.5719 10.9623 22.5852 11.3278 21.6715 11.7663ZM6.94367 19.4409C10.379 19.4409 13.7777 19.4774 17.1399 19.4043C17.8708 19.3678 18.6748 19.0023 19.2961 18.5638C20.3194 17.8694 20.4655 16.5172 19.7346 15.567C19.0768 14.69 18.1266 14.2149 17.1033 14.2149C13.7777 14.1418 10.4155 14.1418 7.0533 14.1052C7.01676 14.1052 6.98021 14.1783 6.90712 14.2149C6.94367 15.896 6.94367 17.6136 6.94367 19.4409ZM6.90712 9.68321C7.08985 9.71975 7.19949 9.71975 7.30912 9.71975C10.1231 9.71975 12.9371 9.71975 15.7146 9.71975C16.2263 9.71975 16.7379 9.64666 17.213 9.53702C18.5652 9.20811 19.4788 8.25793 19.4788 7.23465C19.4788 6.17483 18.6748 5.33428 17.3226 4.93228C17.0668 4.85919 16.811 4.78609 16.5917 4.78609C14.399 4.74955 12.1697 4.713 9.97695 4.67646C8.99022 4.67646 8.00349 4.67646 6.98021 4.67646C6.94367 5.00537 6.94367 5.26119 6.94367 5.51701C6.90712 6.90574 6.90712 8.25793 6.90712 9.68321Z" fill="white"/>
<path d="M102.986 24.2651C99.1124 24.192 95.4213 23.5341 92.0225 21.6338C89.0989 19.9892 86.833 17.7234 86.1021 14.3247C85.1885 10.1585 86.6503 6.72317 89.8663 4.05534C92.6072 1.78951 95.8233 0.729685 99.2585 0.254592C103.571 -0.293593 107.774 -0.00122757 111.83 1.57023C114.169 2.48387 116.252 3.76297 117.86 5.73643C121.807 10.5239 120.711 17.029 115.375 20.7567C112.634 22.6571 109.564 23.6072 106.275 24.0092C105.215 24.1554 104.083 24.192 102.986 24.2651ZM103.242 4.45734C100.245 4.45734 97.6871 5.18825 95.8598 6.61353C92.1687 9.42754 92.1322 14.6901 95.7867 17.5407C97.5775 18.9659 99.6971 19.5507 101.926 19.6969C104.667 19.8796 107.299 19.4776 109.674 17.9427C114.133 15.019 114.096 9.09863 109.638 6.21153C107.627 4.93243 105.398 4.53043 103.242 4.45734Z" fill="white"/>
</svg>

<svg width="157" height="25" fill="none" xmlns="http://www.w3.org/2000/svg"><path d="M62.274 8.623V23.79h-6.98V1.35c-.293.293-.475.44-.658.622C51.09 5.92 47.509 9.83 43.964 13.776a1.923 1.923 0 00-.438 1.17c-.037 2.923-.037 5.847-.037 8.807h-6.98v-8.661c0-.621-.146-1.06-.584-1.498-3.692-4.02-7.456-8.15-11.183-12.243-.256-.256-.476-.548-.805-.914.366-.036.622-.073.914-.073 2.083 0 4.203.037 6.286 0 .548 0 .95.183 1.316.585 2.302 2.704 4.677 5.409 7.016 8.113.183.22.366.438.622.694 1.864-2.192 3.69-4.312 5.555-6.468.694-.804 1.388-1.681 2.12-2.449.218-.256.657-.438.986-.438 4.385-.037 8.807-.037 13.193 0 .402 0 .84.255 1.133.511 4.714 4.495 9.392 9.027 14.106 13.559.147.146.33.292.585.548V.437h7.017V17.03c0 .548-.146.877-.548 1.242a831.528 831.528 0 00-6.36 5.446C72.69 18.71 67.537 13.74 62.275 8.623zm66.039-.803v15.97h-6.944V.4c.256 0 .475-.036.731-.036 2.778 0 5.555.037 8.332-.036.585 0 .841.219 1.097.694 2.339 4.166 4.678 8.332 7.053 12.498.146.293.329.585.548.914 1.791-3.18 3.582-6.322 5.336-9.465a149.55 149.55 0 012.339-4.13c.146-.22.438-.475.658-.511 3.143.036 6.249.036 9.428.036V23.79h-6.907V7.82c-.073-.037-.109-.037-.182-.074-.147.22-.293.475-.439.695-2.741 4.897-5.518 9.757-8.259 14.654-.293.549-.622.695-1.243.768-1.754.256-2.668-.439-3.508-2.01-2.522-4.751-5.226-9.392-7.894-14.07 0 .036-.073.036-.146.036z" fill="#fff"/><path d="M21.672 11.766c1.461.33 2.887.914 4.02 2.047 2.485 2.448 2.156 6.14-.768 8.223-1.718 1.206-3.691 1.79-5.738 1.79-6.285.073-12.608.037-18.894.037-.073 0-.146-.037-.292-.037V.437C.22.401.439.364.658.364h17.286c2.01 0 3.947.402 5.701 1.389 1.572.84 2.74 2.083 2.997 3.91.292 2.01-.512 3.618-2.193 4.751-.877.548-1.864.914-2.777 1.352zM6.944 19.441c3.435 0 6.834.036 10.196-.037.73-.036 1.535-.402 2.156-.84 1.023-.695 1.17-2.047.439-2.997-.658-.877-1.608-1.352-2.632-1.352-3.325-.073-6.688-.073-10.05-.11-.036 0-.073.073-.146.11.037 1.681.037 3.399.037 5.226zm-.037-9.758c.183.037.292.037.402.037h8.406c.511 0 1.023-.073 1.498-.183 1.352-.329 2.266-1.28 2.266-2.302 0-1.06-.804-1.9-2.156-2.303-.256-.073-.512-.146-.731-.146l-6.615-.11H6.98c-.036.33-.036.585-.036.841-.037 1.389-.037 2.74-.037 4.166zm96.079 14.582c-3.874-.073-7.565-.73-10.964-2.631-2.923-1.645-5.189-3.91-5.92-7.31-.913-4.165.548-7.6 3.764-10.269C92.607 1.79 95.823.73 99.258.255c4.313-.549 8.516-.256 12.572 1.315 2.339.914 4.422 2.193 6.03 4.166 3.947 4.788 2.851 11.293-2.485 15.02-2.741 1.901-5.811 2.851-9.1 3.253-1.06.146-2.192.183-3.289.256zm.256-19.808c-2.997 0-5.555.731-7.382 2.157-3.691 2.814-3.728 8.076-.073 10.927 1.79 1.425 3.91 2.01 6.139 2.156 2.741.183 5.373-.22 7.748-1.754 4.459-2.924 4.422-8.844-.036-11.731-2.011-1.28-4.24-1.682-6.396-1.755z" fill="#fff"/></svg>
